X:135
T:Lady on the Island, The
R:reel
D:Mary Bergin: Feadoga Stain.
Z:id:hn-reel-135
M:C|
K:D
BAFB AFEF|D2FA BAdB|BAFB ~A3B|d2fd efdB|
BAFB AFEF|DAFA GBdB|BAFB ~A3B|defd eABc||
|:d2fd efge|afdf edBA|1 d2fd efge|afdf e2 (3ABc:|2 defg ~a3b|afdf e2dB||

